X: 3
T: Lost And Found
R: jig
M: 6/8
L: 1/8
K: Gmaj
|:~G3 dGG|edB dBA|~G3 dGd|edB AGE|~G3 dGG|edB def|gfe dBA|Bee dBA:||:gfg bge|f2g afd|gfg bge|edB GBd|gfg bge|f2g aga|bag agf|egg edB:|


Tune 1160	Setting 25899

